Newaita-dark/actions/22/wallet-open.svg

<svg height="22" viewBox="0 0 22 22" width="22" xmlns="http://www.w3.org/2000/svg"><path d="m2.730469 4.265625c-.503907 0-.910157.40625-.910157.910156v12.734375c0 .503906.40625.910156.910157.910156h16.371093c.503907 0 .910157-.40625.910157-.910156v-12.734375c0-.503906-.40625-.910156-.910157-.910156h-5.457031v1.820313h4.09375c.25 0 .453125.199218.453125.453124v10.003907c0 .253906-.203125.457031-.453125.457031h-13.644531c-.253906 0-.457031-.203125-.457031-.457031v-10.003907c0-.253906.203125-.453124.457031-.453124h4.09375v-1.820313zm0 0" fill="#e0e0e0"/><g fill="#f44336"><path d="m9.097656 3.355469c-.503906 0-.910156.40625-.910156.910156v5.457031c0 .503906.40625.910156.910156.910156h3.636719c.503906 0 .910156-.40625.910156-.910156v-5.457031c0-.503906-.40625-.910156-.910156-.910156zm.453125.910156h2.730469c.25 0 .453125.203125.453125.453125v4.550781c0 .25-.203125.453125-.453125.453125h-2.730469c-.253906 0-.453125-.203125-.453125-.453125v-4.550781c0-.25.199219-.453125.453125-.453125zm0 0"/><path d="m10.914062 5.175781c.503907 0 .910157.40625.910157.910157 0 .5-.40625.90625-.910157.90625-.5 0-.910156-.40625-.910156-.90625 0-.503907.410156-.910157.910156-.910157zm0 0"/></g></svg>

<?xml version="1.0" encoding="UTF-8"?>
<svg xmlns="http://www.w3.org/2000/svg" xmlns:xlink="http://www.w3.org/1999/xlink" width="22px" height="22px" viewBox="0 0 22 22" version="1.1">
<g id="surface1">
<path style=" stroke:none;fill-rule:nonzero;fill:rgb(87.843138%,87.843138%,87.843138%);fill-opacity:1;" d="M 2.730469 4.265625 C 2.226562 4.265625 1.820312 4.671875 1.820312 5.175781 L 1.820312 17.910156 C 1.820312 18.414062 2.226562 18.820312 2.730469 18.820312 L 19.101562 18.820312 C 19.605469 18.820312 20.011719 18.414062 20.011719 17.910156 L 20.011719 5.175781 C 20.011719 4.671875 19.605469 4.265625 19.101562 4.265625 L 13.644531 4.265625 L 13.644531 6.085938 L 17.738281 6.085938 C 17.988281 6.085938 18.191406 6.285156 18.191406 6.539062 L 18.191406 16.542969 C 18.191406 16.796875 17.988281 17 17.738281 17 L 4.09375 17 C 3.839844 17 3.636719 16.796875 3.636719 16.542969 L 3.636719 6.539062 C 3.636719 6.285156 3.839844 6.085938 4.09375 6.085938 L 8.1875 6.085938 L 8.1875 4.265625 Z M 2.730469 4.265625 "/>
<path style=" stroke:none;fill-rule:nonzero;fill:rgb(95.686275%,26.274511%,21.176471%);fill-opacity:1;" d="M 9.097656 3.355469 C 8.59375 3.355469 8.1875 3.761719 8.1875 4.265625 L 8.1875 9.722656 C 8.1875 10.226562 8.59375 10.632812 9.097656 10.632812 L 12.734375 10.632812 C 13.238281 10.632812 13.644531 10.226562 13.644531 9.722656 L 13.644531 4.265625 C 13.644531 3.761719 13.238281 3.355469 12.734375 3.355469 Z M 9.550781 4.265625 L 12.28125 4.265625 C 12.53125 4.265625 12.734375 4.46875 12.734375 4.71875 L 12.734375 9.269531 C 12.734375 9.519531 12.53125 9.722656 12.28125 9.722656 L 9.550781 9.722656 C 9.296875 9.722656 9.097656 9.519531 9.097656 9.269531 L 9.097656 4.71875 C 9.097656 4.46875 9.296875 4.265625 9.550781 4.265625 Z M 9.550781 4.265625 "/>
<path style=" stroke:none;fill-rule:nonzero;fill:rgb(95.686275%,26.274511%,21.176471%);fill-opacity:1;" d="M 10.914062 5.175781 C 11.417969 5.175781 11.824219 5.582031 11.824219 6.085938 C 11.824219 6.585938 11.417969 6.992188 10.914062 6.992188 C 10.414062 6.992188 10.003906 6.585938 10.003906 6.085938 C 10.003906 5.582031 10.414062 5.175781 10.914062 5.175781 Z M 10.914062 5.175781 "/>
</g>
</svg>
